X: 169
T:The Cayugaian
M:4/4
L:1/8
Z:Transcribed by DJG
K:G
(3B^cd AF GE ~E2| DE  ~E2 GE ~E2| (3B^cd AF GE ~E2| DEED E4 :|
cG ~G2 cded| cG ~G2 EF ~F2| cG ~G2 cde2|gfed e3 :|
b3 g a3 f|deed efga| bg ~g2 af ~f2| (3B^cd fd e4|
bg ~g2 af ~f2| (3B^cd fd efg2|  bg ~g2 af ~f2| (3B^cd fd e4|
<end>
<start>
